Gruvbox-Plus-Dark/actions/16/go-down-skip.svg

<svg width="16" height="16" version="1.1" viewBox="0 0 16 16" xmlns="http://www.w3.org/2000/svg">
  <defs>
    <style type="text/css">.ColorScheme-Text { color:#ebdbb2; } .ColorScheme-Highlight { color:#458588; }</style>
  </defs>
  <path class="ColorScheme-Text" d="m7 1v5.172l-3.586-3.586-1.414 1.414 6 6 6-6-1.414-1.414-3.586 3.586v-5.172h-2zm-3.586 6.586-1.414 1.414 6 6 6-6-1.414-1.414-4.586 4.586-4.586-4.586z" fill="currentColor"/>
</svg>

<svg width="16" height="16" version="1.1" viewBox="0 0 16 16" xmlns="http://www.w3.org/2000/svg">
  <defs>
    <style type="text/css">.ColorScheme-Text { color:#ebdbb2; } .ColorScheme-Highlight { color:#458588; }</style>
  </defs>
  <path class="ColorScheme-Text" d="M 7,0 V 6.172 L 3.414,2.586 2,4 8,10 14,4 12.586,2.586 9,6.172 V 0 Z M 3.414,7.586 2,9 8,15 14,9 12.586,7.586 8,12.172 Z" fill="currentColor"/>
</svg>
